pixer/img/icon-instagram.svg

<svg width="22" height="24" viewBox="0 0 22 24" fill="none" xmlns="http://www.w3.org/2000/svg">
<g clip-path="url(#clip0)">
<path d="M11.0049 6.60952C7.88169 6.60952 5.36249 9.01421 5.36249 11.9955C5.36249 14.9767 7.88169 17.3814 11.0049 17.3814C14.1281 17.3814 16.6473 14.9767 16.6473 11.9955C16.6473 9.01421 14.1281 6.60952 11.0049 6.60952ZM11.0049 15.497C8.9866 15.497 7.3366 13.9267 7.3366 11.9955C7.3366 10.0642 8.98169 8.4939 11.0049 8.4939C13.0281 8.4939 14.6732 10.0642 14.6732 11.9955C14.6732 13.9267 13.0232 15.497 11.0049 15.497ZM18.1942 6.38921C18.1942 7.08765 17.6049 7.64546 16.8781 7.64546C16.1464 7.64546 15.562 7.08296 15.562 6.38921C15.562 5.69546 16.1513 5.13296 16.8781 5.13296C17.6049 5.13296 18.1942 5.69546 18.1942 6.38921ZM21.9312 7.66421C21.8477 5.9814 21.4451 4.49077 20.1536 3.26265C18.8669 2.03452 17.3053 1.65015 15.5424 1.56577C13.7254 1.46733 8.27946 1.46733 6.46249 1.56577C4.70446 1.64546 3.14285 2.02983 1.85134 3.25796C0.559819 4.48608 0.162051 5.97671 0.0736587 7.65952C-0.0294662 9.3939 -0.0294662 14.5923 0.0736587 16.3267C0.157141 18.0095 0.559819 19.5001 1.85134 20.7283C3.14285 21.9564 4.69955 22.3408 6.46249 22.4251C8.27946 22.5236 13.7254 22.5236 15.5424 22.4251C17.3053 22.3455 18.8669 21.9611 20.1536 20.7283C21.4402 19.5001 21.8428 18.0095 21.9312 16.3267C22.0344 14.5923 22.0344 9.39858 21.9312 7.66421ZM19.5839 18.1876C19.2009 19.1064 18.4594 19.8142 17.4919 20.1845C16.0433 20.733 12.6058 20.6064 11.0049 20.6064C9.40401 20.6064 5.9616 20.7283 4.51785 20.1845C3.55535 19.8189 2.81384 19.1111 2.42589 18.1876C1.85134 16.8048 1.98393 13.5236 1.98393 11.9955C1.98393 10.4673 1.85625 7.1814 2.42589 5.80327C2.80892 4.88452 3.55044 4.17671 4.51785 3.8064C5.96651 3.25796 9.40401 3.38452 11.0049 3.38452C12.6058 3.38452 16.0482 3.26265 17.4919 3.8064C18.4544 4.17202 19.196 4.87983 19.5839 5.80327C20.1585 7.18608 20.0259 10.4673 20.0259 11.9955C20.0259 13.5236 20.1585 16.8095 19.5839 18.1876Z" fill="white"/>
</g>
<defs>
<clipPath id="clip0">
<rect width="22" height="24" fill="white"/>
</clipPath>
</defs>
</svg>

<svg width="22" height="24" fill="none" xmlns="http://www.w3.org/2000/svg"><g clip-path="url(#prefix__a)"><path d="M11.005 6.61c-3.123 0-5.643 2.404-5.643 5.385 0 2.982 2.52 5.386 5.643 5.386 3.123 0 5.642-2.404 5.642-5.386 0-2.98-2.519-5.385-5.642-5.385zm0 8.887c-2.018 0-3.668-1.57-3.668-3.502 0-1.93 1.645-3.501 3.668-3.501s3.668 1.57 3.668 3.502c0 1.93-1.65 3.501-3.668 3.501zm7.19-9.108c0 .699-.59 1.256-1.317 1.256-.732 0-1.316-.562-1.316-1.256s.59-1.256 1.316-1.256c.727 0 1.316.562 1.316 1.256zm3.736 1.275c-.083-1.683-.486-3.173-1.777-4.401-1.287-1.228-2.849-1.613-4.612-1.697-1.817-.099-7.263-.099-9.08 0-1.758.08-3.32.464-4.61 1.692C.56 4.486.161 5.977.073 7.66c-.103 1.734-.103 6.932 0 8.667.083 1.682.486 3.173 1.777 4.401 1.292 1.228 2.849 1.613 4.611 1.697 1.817.099 7.263.099 9.08 0 1.763-.08 3.325-.464 4.612-1.697 1.286-1.228 1.689-2.719 1.777-4.401.103-1.735.103-6.928 0-8.663zm-2.347 10.524c-.383.918-1.125 1.626-2.092 1.997-1.449.548-4.886.421-6.487.421s-5.043.122-6.487-.422a3.634 3.634 0 0 1-2.092-1.996c-.575-1.383-.442-4.664-.442-6.192 0-1.529-.128-4.815.442-6.193.383-.918 1.124-1.626 2.092-1.997 1.449-.548 4.886-.421 6.487-.421 1.6 0 5.043-.122 6.487.421a3.634 3.634 0 0 1 2.092 1.997c.575 1.383.442 4.664.442 6.192 0 1.529.133 4.815-.442 6.193z" fill="#fff"/></g><defs><clipPath id="prefix__a"><path fill="#fff" d="M0 0h22v24H0z"/></clipPath></defs></svg>
